packages/core/src/svgs/b2m.svg

<svg width="24" height="24" viewBox="0 0 24 24" fill="none" xmlns="http://www.w3.org/2000/svg">
<g clip-path="url(#clip0_31_6511)">
<path d="M0 0H24V24H0V0Z" fill="url(#paint0_linear_31_6511)"/>
<path d="M7.83418 6.02983C8.75619 5.38391 9.81564 4.96098 10.929 4.79439C12.0424 4.62779 13.1792 4.72208 14.2499 5.06983C18.107 6.32983 20.1642 10.4184 18.9213 14.2498C18.6405 15.118 18.2001 15.9261 17.6227 16.6327L16.937 18.6341C16.9113 18.7198 16.8385 18.7327 16.7827 18.6727L16.1142 17.9998C15.1564 18.6612 14.053 19.0814 12.8979 19.2246C11.7428 19.3679 10.5702 19.23 9.47989 18.8227C8.4379 18.4439 7.49663 17.8313 6.72846 17.0318C5.96028 16.2324 5.38565 15.2674 5.04873 14.2111C4.71182 13.1549 4.6216 12.0354 4.785 10.9388C4.94841 9.84222 5.36109 8.79769 5.99132 7.88554C5.80072 7.6322 5.70767 7.31873 5.72917 7.00243C5.75067 6.68612 5.88529 6.38813 6.10843 6.16292C6.33156 5.9377 6.62829 5.80032 6.94438 5.77588C7.26047 5.75144 7.57479 5.84159 7.82989 6.02983H7.83418ZM17.2927 16.037C17.7464 15.4362 18.0969 14.7642 18.3299 14.0484C18.8754 12.387 18.7428 10.5774 17.9611 9.01322C17.1794 7.44902 15.8118 6.25669 14.1556 5.69554L14.0613 5.66554C13.0922 5.35178 12.0641 5.26434 11.0559 5.40996C10.0477 5.55558 9.08632 5.93037 8.24561 6.50554C8.37114 6.7547 8.41506 7.03705 8.37112 7.31257C8.32718 7.58808 8.19763 7.84277 8.00082 8.04053C7.80402 8.23828 7.54995 8.36906 7.27465 8.41432C6.99935 8.45958 6.71679 8.41702 6.46703 8.29268C5.89011 9.14582 5.51986 10.1216 5.38566 11.1427C5.25146 12.1639 5.35698 13.2022 5.69387 14.1754C6.03076 15.1487 6.58975 16.03 7.32652 16.7497C8.06328 17.4693 8.95757 18.0074 9.93846 18.3213C10.8895 18.6359 11.8997 18.73 12.8924 18.5964C13.8852 18.4627 14.8345 18.1048 15.6685 17.5498L15.0599 16.937C15.0042 16.877 15.017 16.8084 15.0985 16.7827L17.2927 16.037ZM14.0785 11.6141C13.7854 12.0606 13.4385 12.4694 13.0456 12.8313L11.7599 14.1427H14.5713V15.4284H9.42846V14.3141L11.6399 12.2998C12.0685 11.9013 12.3599 11.5798 12.5399 11.3398C12.7242 11.0998 12.8142 10.8684 12.8142 10.6455C12.8142 10.4227 12.7327 10.2384 12.5785 10.0884C12.4986 10.0123 12.4044 9.9527 12.3015 9.91299C12.1985 9.87328 12.0888 9.85425 11.9785 9.85697C11.5242 9.85697 11.0999 10.157 10.7013 10.757L9.42846 10.0541C9.75846 9.56554 10.1227 9.19697 10.5213 8.95268C10.9199 8.69554 11.4213 8.57554 12.0385 8.57554C12.6513 8.57554 13.1956 8.75983 13.6585 9.1284C13.8864 9.30433 14.0688 9.53237 14.1903 9.79337C14.3119 10.0544 14.369 10.3407 14.357 10.6284C14.357 10.9713 14.267 11.3013 14.0785 11.6184V11.6141Z" fill="white"/>
</g>
<defs>
<linearGradient id="paint0_linear_31_6511" x1="4.07143" y1="2.78571" x2="17.7857" y2="22.7143" gradientUnits="userSpaceOnUse">
<stop stop-color="#0B569F"/>
<stop offset="1" stop-color="#4596F2"/>
</linearGradient>
<clipPath id="clip0_31_6511">
<rect width="24" height="24" fill="white"/>
</clipPath>
</defs>
</svg>

<svg xmlns="http://www.w3.org/2000/svg" width="24" height="24" fill="none" viewBox="0 0 24 24"><g clip-path="url(#a)"><path fill="url(#b)" d="M0 0h24v24H0z"/><path fill="#fff" d="M7.834 6.03a7.27 7.27 0 0 1 6.416-.96 7.263 7.263 0 0 1 4.671 9.18 7.3 7.3 0 0 1-1.298 2.383l-.686 2.001c-.026.086-.099.099-.154.039L16.114 18a7.22 7.22 0 0 1-6.634.823A7.25 7.25 0 0 1 5.99 7.886 1.32 1.32 0 0 1 7.83 6.03zm9.459 10.007c.453-.6.804-1.273 1.037-1.989a6.634 6.634 0 0 0-4.174-8.352l-.095-.03a6.66 6.66 0 0 0-5.815.84 1.329 1.329 0 0 1-1.779 1.787A6.63 6.63 0 0 0 9.938 18.32a6.6 6.6 0 0 0 5.73-.771l-.608-.613c-.056-.06-.043-.129.038-.154zm-3.214-4.423q-.442.672-1.033 1.217l-1.286 1.312h2.811v1.285H9.428v-1.114L11.64 12.3c.428-.399.72-.72.9-.96q.275-.36.274-.694a.75.75 0 0 0-.236-.558.84.84 0 0 0-.6-.231q-.68 0-1.277.9l-1.273-.703q.495-.733 1.093-1.101c.399-.257.9-.377 1.518-.377.612 0 1.157.184 1.62.552a1.8 1.8 0 0 1 .698 1.5c0 .343-.09.673-.278.99z"/></g><defs><linearGradient id="b" x1="4.071" x2="17.786" y1="2.786" y2="22.714" gradientUnits="userSpaceOnUse"><stop stop-color="#0B569F"/><stop offset="1" stop-color="#4596F2"/></linearGradient><clipPath id="a"><path fill="#fff" d="M0 0h24v24H0z"/></clipPath></defs></svg>
